X: 4933
T: Breaking And Brendaning
R: reel
M: 4/4
K: Amajor
|:agfe fc c/c/c|ec A B2 A GA|FAcA BAFG|AB c e2 c eg
agfe fc c/c/c|ec A B2 A GA|FAcA BAFA|EAcB A4:|
|:d3 c BAFA|BABc defg|afge fdec|dBcA BAFA
d3 c BAFA|BABc defg|agfe fcag|fece f4:|

